tools/download-figma-icons/icons/action/price-tag.svg

<svg width="24" height="24" viewBox="0 0 24 24" fill="none" xmlns="http://www.w3.org/2000/svg">
<path fill-rule="evenodd" clip-rule="evenodd" d="M13.3975 21.9825L13.3965 21.9815L2.0005 10.5855V2.00049L10.5855 1.99949L21.9825 13.3965L13.3975 21.9825ZM23.3965 11.9825L12.0005 0.585488C11.6235 0.208488 11.1205 0.000488281 10.5855 0.000488281H2.0005C0.8975 0.000488281 0.000499725 0.897488 0.000499725 2.00049V10.5855C0.000499725 11.1195 0.2085 11.6215 0.5855 11.9995L11.9825 23.3965C12.3725 23.7855 12.8845 23.9805 13.3965 23.9805C13.9085 23.9805 14.4205 23.7855 14.8105 23.3965L23.3965 14.8105C23.7745 14.4325 23.9825 13.9305 23.9825 13.3965C23.9825 12.8615 23.7745 12.3585 23.3965 11.9825ZM7.6074 10.4927C7.7074 11.1027 7.9214 11.6967 8.2114 12.2607L7.6684 12.8047C7.3754 13.0967 7.3754 13.5717 7.6684 13.8647C7.8144 14.0117 8.0054 14.0847 8.1984 14.0847C8.3904 14.0847 8.5824 14.0117 8.7284 13.8647L9.0654 13.5287C9.3624 13.8847 9.6904 14.2127 10.0494 14.5067L9.7104 14.8467C9.4174 15.1387 9.4174 15.6137 9.7104 15.9067C9.8564 16.0537 10.0474 16.1267 10.2404 16.1267C10.4324 16.1267 10.6244 16.0537 10.7704 15.9067L11.3304 15.3467C11.8774 15.6217 12.4504 15.8297 13.0404 15.9257C13.3054 15.9687 13.5644 15.9907 13.8164 15.9907C15.3804 15.9897 16.6604 15.1767 17.1824 13.7917C17.3264 13.4137 17.4064 12.9867 17.4204 12.5207C17.4334 12.1077 17.1084 11.7617 16.6944 11.7477C16.2804 11.7337 15.9334 12.0597 15.9204 12.4737C15.9124 12.7737 15.8644 13.0377 15.7804 13.2617C15.4244 14.2007 14.4834 14.6407 13.2824 14.4457C13.0064 14.4007 12.7344 14.3167 12.4644 14.2127L13.8244 12.8537C14.1174 12.5607 14.1174 12.0857 13.8244 11.7927C13.5314 11.4997 13.0564 11.4997 12.7634 11.7927L11.1174 13.4387C10.7534 13.1537 10.4224 12.8217 10.1334 12.4607L11.7824 10.8117C12.0754 10.5187 12.0754 10.0437 11.7824 9.75069C11.4894 9.45769 11.0144 9.45769 10.7214 9.75069L9.3464 11.1257C9.2304 10.8377 9.1354 10.5467 9.0874 10.2517C8.9614 9.47069 9.1064 8.77869 9.4984 8.30269C9.8544 7.86869 10.3934 7.62869 11.0554 7.60669C11.4694 7.59369 11.7944 7.24769 11.7814 6.83369C11.7674 6.42769 11.4344 6.10769 11.0314 6.10769H11.0064C9.9174 6.14269 8.9694 6.58369 8.3394 7.34869C7.6694 8.16269 7.4104 9.27969 7.6074 10.4927ZM3 4.49949C3 3.67149 3.672 2.99949 4.5 2.99949C5.329 2.99949 6 3.67149 6 4.49949C6 5.32849 5.329 5.99949 4.5 5.99949C3.672 5.99949 3 5.32849 3 4.49949Z" fill="black"/>
</svg>

<svg width="24" height="24" viewBox="0 0 24 24" fill="none" xmlns="http://www.w3.org/2000/svg"><path fill-rule="evenodd" clip-rule="evenodd" d="m13.398 21.983-.002-.002L2 10.585V2h8.585l11.398 11.396-8.585 8.587Zm9.998-10L12 .585A1.988 1.988 0 0 0 10.585 0H2C.898 0 0 .897 0 2v8.585C0 11.12.208 11.621.586 12l11.396 11.397c.39.39.902.584 1.415.584.511 0 1.024-.195 1.413-.584l8.586-8.586c.378-.378.587-.88.587-1.414 0-.535-.209-1.038-.587-1.414Zm-15.789-1.49c.1.61.314 1.204.604 1.768l-.543.544a.749.749 0 1 0 1.06 1.06l.337-.336c.297.356.625.684.984.978l-.339.34a.749.749 0 1 0 1.06 1.06l.56-.56a5.96 5.96 0 0 0 1.71.579c.265.043.524.065.776.065 1.564-.001 2.844-.814 3.366-2.2.144-.377.224-.804.238-1.27a.751.751 0 0 0-1.5-.047c-.008.3-.056.564-.14.788-.356.939-1.297 1.379-2.498 1.184a4.14 4.14 0 0 1-.818-.233l1.36-1.36a.75.75 0 1 0-1.06-1.06l-1.647 1.646a6.029 6.029 0 0 1-.984-.978l1.65-1.65a.75.75 0 1 0-1.062-1.06l-1.375 1.375a4.135 4.135 0 0 1-.259-.874c-.126-.781.02-1.473.411-1.95.356-.433.895-.673 1.557-.695a.75.75 0 0 0-.024-1.5h-.025c-1.089.036-2.037.477-2.667 1.242-.67.814-.929 1.93-.732 3.144ZM3 4.499a1.5 1.5 0 1 1 3.001.002A1.5 1.5 0 0 1 3 4.499Z" fill="currentColor"/></svg>
